assets/svg/facebook.svg

<svg width="48" height="48" viewBox="0 0 48 48" fill="none" xmlns="http://www.w3.org/2000/svg">
<path d="M44 6.10001V41.9C43.9937 41.9771 43.9579 42.0487 43.9 42.1C43.8759 42.5696 43.6785 43.0135 43.346 43.346C43.0135 43.6785 42.5696 43.8759 42.1 43.9H31.6V28.5H36.5C36.8 28.5 36.8 28.5 36.9 28.2L37.2 25.7C37.3 24.7 37.4 23.7 37.6 22.7C37.8 21.7 37.6 22.4 37.4 22.4H31.6V18.5C31.6 18.2 31.7 17.8 31.7 17.5C31.7435 17.0905 31.926 16.7083 32.2172 16.4172C32.5083 16.126 32.8905 15.9435 33.3 15.9L34.6 15.7H37.6C37.8 15.7 37.8 15.7 37.8 15.5V10.4C37.8 10.3 37.8 10.2 37.6 10.2H33C31.8601 10.1687 30.729 10.4086 29.7 10.9C28.9388 11.1562 28.2368 11.5626 27.6356 12.0951C27.0344 12.6276 26.5462 13.2753 26.2 14C25.6296 15.1118 25.3542 16.3513 25.4 17.6C25.3 19.1 25.4 20.7 25.4 22.3H20.3C20.1 22.3 20.1 22.4 20.1 22.5V28.2C20.1 28.4 20.1 28.4 20.3 28.4H25.4V43.8C25.3421 43.8513 25.3063 43.9229 25.3 44H5.9C5.43042 43.9759 4.98647 43.7785 4.65399 43.446C4.32152 43.1135 4.12413 42.6696 4.1 42.2C4 42.2 4 42.1 4 42V6.10001C4 6.00001 4 5.90001 4.1 5.90001C4.12413 5.43043 4.32152 4.98648 4.65399 4.654C4.98647 4.32152 5.43042 4.12413 5.9 4.10001H42.1C42.5696 4.12413 43.0135 4.32152 43.346 4.654C43.6785 4.98648 43.8759 5.43043 43.9 5.90001L44 6.10001Z" fill="white"/>
</svg>

<svg xmlns="http://www.w3.org/2000/svg" width="48" height="48" viewBox="0 0 48 48"><rect width="48" height="48" fill="none"/><rect width="48" height="48" fill="none"/><path d="M44,6.1V41.9a.3.3,0,0,1-.1.2,1.9,1.9,0,0,1-1.8,1.8H31.6V28.5h4.9c.3,0,.3,0,.4-.3l.3-2.5c.1-1,.2-2,.4-3s0-.3-.2-.3H31.6V18.5c0-.3.1-.7.1-1a1.8,1.8,0,0,1,1.6-1.6l1.3-.2h3c.2,0,.2,0,.2-.2V10.4c0-.1,0-.2-.2-.2H33a7.2,7.2,0,0,0-3.3.7A6,6,0,0,0,26.2,14a7.3,7.3,0,0,0-.8,3.6c-.1,1.5,0,3.1,0,4.7H20.3c-.2,0-.2.1-.2.2v5.7c0,.2,0,.2.2.2h5.1V43.8a.3.3,0,0,0-.1.2H5.9a1.9,1.9,0,0,1-1.8-1.8c-.1,0-.1-.1-.1-.2V6.1c0-.1,0-.2.1-.2A1.9,1.9,0,0,1,5.9,4.1H42.1a1.9,1.9,0,0,1,1.8,1.8Z" fill="#fff"/></svg>
